images/work/endsleigh/endsleigh.svg

<svg height="99" viewBox="0 0 156 99" width="156" xmlns="http://www.w3.org/2000/svg"><g fill="none" fill-rule="evenodd"><path d="m124.349303 72.5795481-46.349303 24.8204519-8.8304172-16.4482068c-7.016169 4.7057689-15.4657323 7.4482068-24.5695828 7.4482068-24.4 0-44.1-19.7-44.1-44.1 0-3.0818647.31847825-6.091348.92422335-8.9972384 2.76144203 16.9154732 14.99150085 31.4890625 32.47577665 36.2972384 16.2 4.4 32.7-.6 43.8-11.7l4.1 21zm.012327-.0024106 22.23837 15.8228625 8.4-88.1-21.618356 9.8826772 11.318356 58.4173228zm-46.5892276-57.3312732c-8.0757329-9.21569538-19.9321032-15.0458643-33.1724024-15.0458643-14.2905429 0-27.0247711 6.84778475-35.09083361 17.4315032l63.39083361 17.4684968-3.6-18.2z" fill="#000"/><g transform="translate(15 36)"><g fill="#201f1f"><path d="m13.9 18.2c-.2.1-.4.3-.7.5s-.7.4-1.2.7c-.5.2-1.1.4-1.8.6s-1.5.2-2.3.2c-1.2 0-2.2-.2-3.2-.5-.9-.4-1.7-.9-2.4-1.5s-1.2-1.4-1.5-2.3-.5-1.9-.5-3c0-1 .2-1.9.5-2.8s.8-1.7 1.4-2.3c.6-.7 1.4-1.2 2.2-1.6.9-.4 1.9-.6 3-.6s2.1.2 2.9.6 1.6.9 2.1 1.6c.6.7 1 1.5 1.3 2.5s.4 2 .4 3.2v.7h-9.8c0 .7.3 1.4 1 1.9.6.6 1.5.8 2.6.8s2-.2 2.7-.5 1.2-.6 1.5-.8zm-3.7-6.8c0-.3-.1-.6-.2-.9s-.3-.6-.5-.8c-.2-.3-.5-.5-.9-.6-.4-.2-.8-.2-1.3-.2s-.9.1-1.3.2c-.4.2-.7.4-.9.6-.2.3-.4.5-.6.8-.1.3-.2.6-.2.9z"/><path d="m15.9 5.9h4.1l.1 1.5c.5-.5 1-1 1.8-1.3.7-.3 1.5-.5 2.3-.5 1.6 0 2.8.5 3.8 1.4.9.9 1.4 2.3 1.4 4.2v8.5h-4.2v-7.9c0-.8-.2-1.4-.6-1.8-.4-.5-.9-.7-1.6-.7-.5 0-.9.1-1.2.2-.4.2-.6.4-.9.7-.2.3-.4.6-.5 1s-.2.7-.2 1.2v7.4h-4.2v-13.9z"/><path d="m41 18.3c-.4.5-1 .9-1.7 1.3-.7.3-1.4.5-2.3.5-.8 0-1.6-.2-2.4-.5-.7-.3-1.4-.8-1.9-1.4s-1-1.4-1.3-2.2c-.3-.9-.5-1.9-.5-2.9 0-1.2.2-2.3.7-3.2.4-.9 1-1.7 1.7-2.3s1.5-1.1 2.3-1.4c.9-.3 1.7-.5 2.5-.5.7 0 1.2 0 1.6.1s.8.2 1.1.3v-6h4.2v19.6h-3.9zm-.1-8.6c-.3-.2-.6-.3-1-.4-.3-.1-.8-.1-1.3-.1-1.1 0-1.9.4-2.5 1.1s-.9 1.7-.9 2.8c0 1 .2 1.8.7 2.5.5.6 1.2 1 2.2 1 .5 0 .9-.1 1.2-.2.3-.2.6-.4.9-.7.2-.3.4-.6.5-1s.1-.8.1-1.1v-3.9z"/><path d="m48.7 15.4c.4.4 1 .8 1.8 1 .7.3 1.4.4 2.1.4.6 0 1.1-.1 1.6-.2.4-.2.6-.5.6-.9 0-.2 0-.3-.1-.5-.1-.1-.3-.3-.5-.4s-.6-.3-1-.4-1-.3-1.6-.5c-.5-.1-1.1-.3-1.6-.5s-1-.5-1.4-.8-.7-.7-1-1.2c-.2-.5-.4-1-.4-1.6s.1-1.2.4-1.7.7-1 1.2-1.4 1.1-.7 1.8-.9 1.5-.3 2.3-.3c1.2 0 2.2.1 3.1.4s1.7.6 2.4 1.2l-1.8 2.8c-.4-.3-1-.6-1.5-.8-.6-.2-1.2-.4-2-.4-.6 0-1.1.1-1.4.3s-.4.4-.4.7c0 .5.3.8.9 1s1.4.5 2.5.7c1.4.4 2.4.9 3.1 1.6.6.7 1 1.6 1 2.7 0 .8-.2 1.4-.5 2-.3.5-.8 1-1.4 1.4s-1.2.6-2 .8c-.7.2-1.5.3-2.2.3-1.2 0-2.4-.2-3.5-.5s-2-.8-2.7-1.5z"/><path d="m60.7.1h4.2v19.6h-4.2z"/><path d="m80.4 18.2c-.2.1-.4.3-.7.5s-.7.4-1.2.7c-.5.2-1.1.4-1.8.6s-1.5.2-2.3.2c-1.2 0-2.2-.2-3.2-.5-.9-.4-1.7-.9-2.4-1.5s-1.2-1.4-1.5-2.3-.5-1.9-.5-3c0-1 .2-1.9.5-2.8s.8-1.7 1.4-2.3c.6-.7 1.3-1.2 2.2-1.6s1.9-.6 3-.6 2.1.2 2.9.6 1.5.9 2.1 1.6 1 1.5 1.3 2.5.4 2 .4 3.2v.7h-9.8c0 .7.3 1.4 1 1.9.6.6 1.5.8 2.6.8s2-.2 2.7-.5 1.2-.6 1.5-.8zm-3.7-6.8c0-.3-.1-.6-.2-.9s-.3-.6-.5-.8c-.2-.3-.5-.5-.9-.6-.4-.2-.8-.2-1.3-.2s-.9.1-1.3.2c-.4.2-.7.4-.9.6-.2.3-.4.5-.6.8-.1.3-.2.6-.2.9z"/><path d="m82.5 5.9h4.2v13.8h-4.2z"/><path d="m91.4 21.5c.5.3 1.1.6 1.7.8s1.3.3 2 .3c1 0 1.7-.3 2.3-.8.5-.5.8-1.3.8-2.3v-1c-.9.8-2.1 1.1-3.5 1.1-1 0-1.9-.2-2.6-.5-.8-.3-1.4-.8-2-1.4-.5-.6-.9-1.3-1.2-2.1s-.4-1.7-.4-2.6c0-1.1.2-2.1.6-3s.9-1.7 1.6-2.3c.7-.7 1.5-1.2 2.5-1.5 1-.4 2-.5 3.2-.5 1.1 0 2.2.1 3.2.3s2 .4 2.8.7v12.6c0 2.3-.6 3.9-1.9 5s-3 1.6-5.1 1.6c-1.2 0-2.3-.1-3.2-.4-.9-.2-1.8-.6-2.5-1.1zm6.9-12.1c-.3-.1-.5-.2-.8-.2s-.6-.1-1.1-.1c-.6 0-1.1.1-1.6.3-.4.2-.8.5-1.1.8s-.5.7-.7 1.2c-.1.5-.2.9-.2 1.5 0 1 .2 1.8.7 2.4s1.2.9 2.1.9 1.5-.2 2-.6.7-1.1.7-2z"/><path d="m104.6.1h4.2v7.1c.5-.5 1-.9 1.8-1.2.7-.3 1.5-.4 2.3-.4 1.6 0 2.9.5 3.8 1.4s1.4 2.3 1.4 4.2v8.5h-4.2v-7.9c0-.8-.2-1.4-.6-1.9s-1-.7-1.6-.7c-.4 0-.9.1-1.2.2-.4.2-.6.4-.9.7-.2.3-.4.6-.5 1s-.2.7-.2 1.2v7.4h-4.2v-19.6z"/></g><path d="m82.5.1h4.2v4.2h-4.2z" fill="#000"/></g></g></svg>

<?xml version="1.0" encoding="UTF-8" standalone="no"?>
<svg width="156px" height="99px" viewBox="0 0 156 99" version="1.1" xmlns="http://www.w3.org/2000/svg" xmlns:xlink="http://www.w3.org/1999/xlink" xmlns:sketch="http://www.bohemiancoding.com/sketch/ns">
    <!-- Generator: Sketch 3.3.3 (12072) - http://www.bohemiancoding.com/sketch -->
    <title>Artboard 1</title>
    <desc>Created with Sketch.</desc>
    <defs></defs>
    <g id="Page-1" stroke="none" stroke-width="1" fill="none" fill-rule="evenodd" sketch:type="MSPage">
        <g id="Artboard-1" sketch:type="MSArtboardGroup">
            <g id="endsleigh" sketch:type="MSLayerGroup">
                <g id="Group" sketch:type="MSShapeGroup">
                    <path d="M124.349303,72.5795481 L78,97.4 L69.1695828,80.9517932 L69.1695828,80.9517932 C62.1534138,85.6575621 53.7038505,88.4 44.6,88.4 C20.2,88.4 0.5,68.7 0.5,44.3 C0.5,41.2181353 0.818478251,38.208652 1.42422335,35.3027616 C4.18566538,52.2182348 16.4157242,66.7918241 33.9,71.6 C50.1,76 66.6,71 77.7,59.9 L81.8,80.9 L124.349303,72.5795481 Z M124.36163,72.5771375 L146.6,88.4 L155,0.3 L133.381644,10.1826772 L144.7,68.6 L124.36163,72.5771375 Z M77.7724024,15.2458643 C69.6966695,6.03016892 57.8402992,0.2 44.6,0.2 C30.3094571,0.2 17.5752289,7.04778475 9.50916639,17.6315032 L72.9,35.1 L69.3,16.9 L77.7724024,15.2458643 Z" id="Shape" fill="#000000"></path>
                    <g transform="translate(15.000000, 36.000000)">
                        <path d="M13.9,18.2 C13.7,18.3 13.5,18.5 13.2,18.7 C12.9,18.9 12.5,19.1 12,19.4 C11.5,19.6 10.9,19.8 10.2,20 C9.5,20.2 8.7,20.2 7.9,20.2 C6.7,20.2 5.7,20 4.7,19.7 C3.8,19.3 3,18.8 2.3,18.2 C1.6,17.6 1.1,16.8 0.8,15.9 C0.5,15 0.3,14 0.3,12.9 C0.3,11.9 0.5,11 0.8,10.1 C1.1,9.2 1.6,8.4 2.2,7.8 C2.8,7.1 3.6,6.6 4.4,6.2 C5.3,5.8 6.3,5.6 7.4,5.6 C8.5,5.6 9.5,5.8 10.3,6.2 C11.1,6.6 11.9,7.1 12.4,7.8 C13,8.5 13.4,9.3 13.7,10.3 C14,11.3 14.1,12.3 14.1,13.5 L14.1,14.2 L4.3,14.2 C4.3,14.9 4.6,15.6 5.3,16.1 C5.9,16.7 6.8,16.9 7.9,16.9 C9,16.9 9.9,16.7 10.6,16.4 C11.3,16.1 11.8,15.8 12.1,15.6 L13.9,18.2 L13.9,18.2 Z M10.2,11.4 C10.2,11.1 10.1,10.8 10,10.5 C9.9,10.2 9.7,9.9 9.5,9.7 C9.3,9.4 9,9.2 8.6,9.1 C8.2,8.9 7.8,8.9 7.3,8.9 C6.8,8.9 6.4,9 6,9.1 C5.6,9.3 5.3,9.5 5.1,9.7 C4.9,10 4.7,10.2 4.5,10.5 C4.4,10.8 4.3,11.1 4.3,11.4 L10.2,11.4 L10.2,11.4 Z" id="Shape" fill="#201F1F"></path>
                        <path d="M15.9,5.9 L20,5.9 L20.1,7.4 C20.6,6.9 21.1,6.4 21.9,6.1 C22.6,5.8 23.4,5.6 24.2,5.6 C25.8,5.6 27,6.1 28,7 C28.9,7.9 29.4,9.3 29.4,11.2 L29.4,19.7 L25.2,19.7 L25.2,11.8 C25.2,11 25,10.4 24.6,10 C24.2,9.5 23.7,9.3 23,9.3 C22.5,9.3 22.1,9.4 21.8,9.5 C21.4,9.7 21.2,9.9 20.9,10.2 C20.7,10.5 20.5,10.8 20.4,11.2 C20.3,11.6 20.2,11.9 20.2,12.4 L20.2,19.8 L16,19.8 L16,5.9 L15.9,5.9 Z" id="Shape" fill="#201F1F"></path>
                        <path d="M41,18.3 C40.6,18.8 40,19.2 39.3,19.6 C38.6,19.9 37.9,20.1 37,20.1 C36.2,20.1 35.4,19.9 34.6,19.6 C33.9,19.3 33.2,18.8 32.7,18.2 C32.2,17.6 31.7,16.8 31.4,16 C31.1,15.1 30.9,14.1 30.9,13.1 C30.9,11.9 31.1,10.8 31.6,9.9 C32,9 32.6,8.2 33.3,7.6 C34,7 34.8,6.5 35.6,6.2 C36.5,5.9 37.3,5.7 38.1,5.7 C38.8,5.7 39.3,5.7 39.7,5.8 C40.1,5.9 40.5,6 40.8,6.1 L40.8,0.1 L45,0.1 L45,19.7 L41.1,19.7 L41,18.3 L41,18.3 Z M40.9,9.7 C40.6,9.5 40.3,9.4 39.9,9.3 C39.6,9.2 39.1,9.2 38.6,9.2 C37.5,9.2 36.7,9.6 36.1,10.3 C35.5,11 35.2,12 35.2,13.1 C35.2,14.1 35.4,14.9 35.9,15.6 C36.4,16.2 37.1,16.6 38.1,16.6 C38.6,16.6 39,16.5 39.3,16.4 C39.6,16.2 39.9,16 40.2,15.7 C40.4,15.4 40.6,15.1 40.7,14.7 C40.8,14.3 40.8,13.9 40.8,13.6 L40.8,9.7 L40.9,9.7 Z" id="Shape" fill="#201F1F"></path>
                        <path d="M48.7,15.4 C49.1,15.8 49.7,16.2 50.5,16.4 C51.2,16.7 51.9,16.8 52.6,16.8 C53.2,16.8 53.7,16.7 54.2,16.6 C54.6,16.4 54.8,16.1 54.8,15.7 C54.8,15.5 54.8,15.4 54.7,15.2 C54.6,15.1 54.4,14.9 54.2,14.8 C54,14.7 53.6,14.5 53.2,14.4 C52.8,14.3 52.2,14.1 51.6,13.9 C51.1,13.8 50.5,13.6 50,13.4 C49.5,13.2 49,12.9 48.6,12.6 C48.2,12.3 47.9,11.9 47.6,11.4 C47.4,10.9 47.2,10.4 47.2,9.8 C47.2,9.2 47.3,8.6 47.6,8.1 C47.9,7.6 48.3,7.1 48.8,6.7 C49.3,6.3 49.9,6 50.6,5.8 C51.3,5.6 52.1,5.5 52.9,5.5 C54.1,5.5 55.1,5.6 56,5.9 C56.9,6.2 57.7,6.5 58.4,7.1 L56.6,9.9 C56.2,9.6 55.6,9.3 55.1,9.1 C54.5,8.9 53.9,8.7 53.1,8.7 C52.5,8.7 52,8.8 51.7,9 C51.4,9.2 51.3,9.4 51.3,9.7 C51.3,10.2 51.6,10.5 52.2,10.7 C52.8,10.9 53.6,11.2 54.7,11.4 C56.1,11.8 57.1,12.3 57.8,13 C58.4,13.7 58.8,14.6 58.8,15.7 C58.8,16.5 58.6,17.1 58.3,17.7 C58,18.2 57.5,18.7 56.9,19.1 C56.3,19.5 55.7,19.7 54.9,19.9 C54.2,20.1 53.4,20.2 52.7,20.2 C51.5,20.2 50.3,20 49.2,19.7 C48.1,19.4 47.2,18.9 46.5,18.2 L48.7,15.4 L48.7,15.4 Z" id="Shape" fill="#201F1F"></path>
                        <path d="M60.7,0.1 L64.9,0.1 L64.9,19.7 L60.7,19.7 L60.7,0.1 L60.7,0.1 Z" id="Shape" fill="#201F1F"></path>
                        <path d="M80.4,18.2 C80.2,18.3 80,18.5 79.7,18.7 C79.4,18.9 79,19.1 78.5,19.4 C78,19.6 77.4,19.8 76.7,20 C76,20.2 75.2,20.2 74.4,20.2 C73.2,20.2 72.2,20 71.2,19.7 C70.3,19.3 69.5,18.8 68.8,18.2 C68.1,17.6 67.6,16.8 67.3,15.9 C67,15 66.8,14 66.8,12.9 C66.8,11.9 67,11 67.3,10.1 C67.6,9.2 68.1,8.4 68.7,7.8 C69.3,7.1 70,6.6 70.9,6.2 C71.8,5.8 72.8,5.6 73.9,5.6 C75,5.6 76,5.8 76.8,6.2 C77.6,6.6 78.3,7.1 78.9,7.8 C79.5,8.5 79.9,9.3 80.2,10.3 C80.5,11.3 80.6,12.3 80.6,13.5 L80.6,14.2 L70.8,14.2 C70.8,14.9 71.1,15.6 71.8,16.1 C72.4,16.7 73.3,16.9 74.4,16.9 C75.5,16.9 76.4,16.7 77.1,16.4 C77.8,16.1 78.3,15.8 78.6,15.6 L80.4,18.2 L80.4,18.2 Z M76.7,11.4 C76.7,11.1 76.6,10.8 76.5,10.5 C76.4,10.2 76.2,9.9 76,9.7 C75.8,9.4 75.5,9.2 75.1,9.1 C74.7,8.9 74.3,8.9 73.8,8.9 C73.3,8.9 72.9,9 72.5,9.1 C72.1,9.3 71.8,9.5 71.6,9.7 C71.4,10 71.2,10.2 71,10.5 C70.9,10.8 70.8,11.1 70.8,11.4 L76.7,11.4 L76.7,11.4 Z" id="Shape" fill="#201F1F"></path>
                        <path d="M82.5,5.9 L86.7,5.9 L86.7,19.7 L82.5,19.7 L82.5,5.9 L82.5,5.9 Z" id="Shape" fill="#201F1F"></path>
                        <path d="M91.4,21.5 C91.9,21.8 92.5,22.1 93.1,22.3 C93.7,22.5 94.4,22.6 95.1,22.6 C96.1,22.6 96.8,22.3 97.4,21.8 C97.9,21.3 98.2,20.5 98.2,19.5 L98.2,18.5 C97.3,19.3 96.1,19.6 94.7,19.6 C93.7,19.6 92.8,19.4 92.1,19.1 C91.3,18.8 90.7,18.3 90.1,17.7 C89.6,17.1 89.2,16.4 88.9,15.6 C88.6,14.8 88.5,13.9 88.5,13 C88.5,11.9 88.7,10.9 89.1,10 C89.5,9.1 90,8.3 90.7,7.7 C91.4,7 92.2,6.5 93.2,6.2 C94.2,5.8 95.2,5.7 96.4,5.7 C97.5,5.7 98.6,5.8 99.6,6 C100.6,6.2 101.6,6.4 102.4,6.7 L102.4,19.3 C102.4,21.6 101.8,23.2 100.5,24.3 C99.2,25.4 97.5,25.9 95.4,25.9 C94.2,25.9 93.1,25.8 92.2,25.5 C91.3,25.3 90.4,24.9 89.7,24.4 L91.4,21.5 L91.4,21.5 Z M98.3,9.4 C98,9.3 97.8,9.2 97.5,9.2 C97.2,9.2 96.9,9.1 96.4,9.1 C95.8,9.1 95.3,9.2 94.8,9.4 C94.4,9.6 94,9.9 93.7,10.2 C93.4,10.5 93.2,10.9 93,11.4 C92.9,11.9 92.8,12.3 92.8,12.9 C92.8,13.9 93,14.7 93.5,15.3 C94,15.9 94.7,16.2 95.6,16.2 C96.5,16.2 97.1,16 97.6,15.6 C98.1,15.2 98.3,14.5 98.3,13.6 L98.3,9.4 L98.3,9.4 Z" id="Shape" fill="#201F1F"></path>
                        <path d="M104.6,0.1 L108.8,0.1 L108.8,7.2 C109.3,6.7 109.8,6.3 110.6,6 C111.3,5.7 112.1,5.6 112.9,5.6 C114.5,5.6 115.8,6.1 116.7,7 C117.6,7.9 118.1,9.3 118.1,11.2 L118.1,19.7 L113.9,19.7 L113.9,11.8 C113.9,11 113.7,10.4 113.3,9.9 C112.9,9.4 112.3,9.2 111.7,9.2 C111.3,9.2 110.8,9.3 110.5,9.4 C110.1,9.6 109.9,9.8 109.6,10.1 C109.4,10.4 109.2,10.7 109.1,11.1 C109,11.5 108.9,11.8 108.9,12.3 L108.9,19.7 L104.7,19.7 L104.7,0.1 L104.6,0.1 Z" id="Shape" fill="#201F1F"></path>
                        <rect id="Rectangle-path" fill="#000000" x="82.5" y="0.1" width="4.2" height="4.2"></rect>
                    </g>
                </g>
            </g>
        </g>
    </g>
</svg>
